images/wikipedia-wordmark-szl.svg

<?xml version="1.0" encoding="UTF-8"?>
<svg xmlns="http://www.w3.org/2000/svg" width="138" height="21" viewBox="0 0 120 21">
	<title>
		szl-wordmark
	</title>
	<g id="Page-1" fill="none" fill-rule="evenodd" stroke="none" stroke-width="1">
		<path id="szl-wordmark" fill="#72777D" fill-rule="nonzero" d="M102.50539,5.47127 C102.61,5.58292 102.61,5.97369 102.50539,6.08534 C101.45922,6.14116 101.1628,6.2342 101.1628,7.77867 L101.1628,7.77867 L101.1628,15.59406 C101.1628,18.25501 100.13406,19.22263 99.3843,19.91113 C98.66942,20.56241 98.12889,20.71127 97.34427,20.71127 C96.96068,20.71127 96.03655,20.37633 96.03655,19.70644 C96.03655,19.29706 96.55964,18.90629 96.80374,18.90629 C97.34427,18.90629 97.41401,19.29706 97.58837,19.53896 C97.71043,19.72504 97.95453,19.87391 98.19864,19.87391 C98.77403,19.87391 99.68072,19.35288 99.68072,16.00343 L99.68072,16.00343 L99.68072,7.77867 C99.68072,6.2342 99.3843,6.14114 97.98941,6.08534 C97.88479,5.97369 97.88479,5.58292 97.98941,5.47127 C98.86121,5.48987 99.47149,5.50847 100.41304,5.50847 C101.23254,5.50847 101.65101,5.48987 102.50539,5.47127 Z M14.256824,0.26227 C15.4975784,0.252984286 18.1740498,0.260943469 18.5500725,0.262127872 L18.59431,0.26227 L18.64772,0.31527 L18.64772,0.81127 C18.64772,0.94827 18.575569,1.01627 18.433141,1.01627 C17.734121,1.05127 17.590757,1.12527 17.334949,1.51827 C17.195332,1.73327 16.919847,2.19427 16.634055,2.71127 L16.634055,2.71127 L14.180925,7.60727 C14.180925,7.60727 14.157032,7.66053838 14.1126594,7.75927197 L17.110064,14.30727 L17.291847,14.36027 L22.014449,2.39927 C22.178428,1.91727 22.153129,1.57527 21.942299,1.37427 C21.730532,1.17827 21.581545,1.06227 21.034323,1.03827 L20.59111,1.01427 C20.53676,1.01427 20.485227,0.99327 20.435564,0.95427 C20.386834,0.91727 20.361534,0.86827 20.361534,0.80927 L20.361534,0.31127 L20.429004,0.26027 L25.76442,0.26027 L25.76442,0.26027 L25.81877,0.31127 L25.81877,0.80927 C25.81877,0.94427 25.74662,1.01227 25.604191,1.01227 C24.905171,1.04527 24.386997,1.20727 24.051542,1.49627 C23.71515,1.78727 23.452784,2.18827 23.264442,2.70927 C23.264442,2.70927 18.921334,13.31827 17.435214,16.84427 C16.86644,18.00027 16.307036,17.89427 15.815099,16.81127 C15.1991476,15.4574524 13.9201581,12.4716586 12.9805572,10.2642138 C11.9758801,12.4759738 10.599852,15.474505 9.917465,16.82527 C9.254052,18.05627 8.707767,17.89527 8.272987,16.85727 C6.763441,13.05627 3.663765,6.38227 2.204818,2.64227 C1.9349552,1.95327 1.7316209,1.51127 1.5395309,1.33627 C1.3465039,1.16327 0.9454575,1.05927 0.3354547,1.02427 C0.1115059,0.99827 4.17443857e-13,0.94027 4.17443857e-13,0.84627 L4.17443857e-13,0.84627 L4.17443857e-13,0.32527 L0.0543455,0.27427 C0.927197782,0.268997273 4.74524064,0.272991763 5.65800251,0.274037593 L5.854526,0.27427 L5.908876,0.32527 L5.908876,0.82127 C5.908876,0.95827 5.827355,1.02427 5.667124,1.02427 L5.667124,1.02427 L5.061806,1.05127 C4.542695,1.07427 4.283139,1.24027 4.283139,1.54727 C4.283139,1.69027 4.337486,1.92227 4.458363,2.23527 C5.620273,5.25627 9.633548,14.28727 9.633548,14.28727 L9.633548,14.28727 L9.78066,14.32827 L12.3676938,8.82179618 C12.0513482,8.07594393 11.849612,7.59827 11.849612,7.59827 L10.07114,3.86827 C10.071137,3.86827 9.727249,3.12227 9.610121,2.87427 C8.828643,1.22127 8.845509,1.13327 8.055598,1.02227 C7.83446,0.99127 7.720143,0.96127 7.720143,0.84427 L7.720143,0.32127 L7.786673,0.27027 C9.213761,0.26827 12.389336,0.26827 12.389336,0.26827 L12.511149,0.31127 L12.511149,0.83227 C12.511149,0.95127 12.431499,1.01227 12.269397,1.01227 L11.935816,1.06327 C11.092494,1.13327 11.230237,1.50127 11.790577,2.69227 L13.497,6.418 L15.384066,2.40127 C15.6772875,1.71877 15.6424834,1.51136694 15.5317332,1.34910856 L15.504942,1.31227 C15.42998,1.21627 15.178857,1.06327 14.632572,1.03927 L14.632572,1.03927 L14.417993,1.01427 C14.363646,1.01427 14.313044,0.99427 14.263384,0.95527 C14.214654,0.91827 14.190294,0.87027 14.190294,0.80927 L14.190294,0.80927 L14.190294,0.31327 Z M90.208048,5.47129 C90.312667,5.58294 90.312667,5.97371 90.208048,6.08536 C89.231622,6.14118 88.97008,6.01093 89.405983,6.79246 L89.405983,6.79246 L91.60294,10.92345 C91.759873,11.22116 91.829615,11.27699 91.986539,10.96065 L91.986539,10.96065 L94.06145,6.79244 C94.44505,6.01094 94.00914,6.14114 93.24195,6.08534 C93.13733,5.97369 93.13733,5.60153 93.24195,5.48988 C93.76503,5.50383 94.1704237,5.5073175 94.5096169,5.50818937 L95.0829338,5.5083312 C95.4389056,5.507736 95.857376,5.50476 96.27584,5.48988 C96.38046,5.60153 96.38046,5.97369 96.27584,6.08534 C95.49122,6.17838 95.24711,6.06673 94.75889,6.99713 L94.75889,6.99713 L92.52706,11.29559 C92.17834,11.98409 92.23064,11.79801 92.23064,12.54233 L92.23064,12.54233 L92.23063,15.24052 C92.23063,16.78499 92.52705,16.87806 93.92195,16.93386 C94.02656,17.0455 94.02656,17.43627 93.92195,17.54792 C93.05014,17.52932 92.43987,17.51072 91.498322,17.51072 C90.539325,17.51072 89.911621,17.52932 89.057252,17.54792 C88.952633,17.43627 88.952633,17.0455 89.057252,16.93386 C90.452144,16.87803 90.748562,16.78499 90.748562,15.24052 L90.748562,15.24052 L90.748562,12.69122 C90.748562,12.00272 90.678819,12.00272 90.382401,11.44448 L90.382401,11.44448 L88.080826,7.3321 C87.38338,6.06676 87.191571,6.14116 86.459259,6.08536 C86.354689,5.97371 86.33721,5.58294 86.441829,5.47129 C86.964913,5.48989 87.540312,5.50849 88.22032,5.50849 C88.917766,5.50849 89.510602,5.48989 90.208048,5.47129 Z M65.29841,5.52527 L68.879717,5.52527 C69.610596,5.52527 71.34128,5.47327 71.34128,5.47327 L71.39094,5.52527 C71.41437,6.64327 71.584904,7.65927 71.75638,8.64627 L71.148251,8.75027 C70.881199,7.78727 70.418309,6.41027 68.859101,6.41027 L66.91009,6.41027 C66.4472,6.41027 66.203574,6.59227 66.203574,7.03327 L66.203574,10.80427 L68.029834,10.80427 C68.712925,10.80427 68.882526,10.49227 68.980914,9.97227 L69.126152,9.42627 C69.126152,9.34827 69.175812,9.29527 69.272328,9.29527 L69.685556,9.29527 C69.735216,9.29527 69.735216,9.32227 69.735216,9.37327 C69.685556,9.94527 69.58904,10.67427 69.58904,11.29827 C69.58904,11.94727 69.68649,12.49427 69.735216,13.09227 L69.685556,13.14527 L69.272328,13.14527 C69.151452,13.14527 69.100853,13.09227 69.100853,13.01427 L68.97904,12.44327 C68.88159,11.92227 68.662325,11.63627 68.027023,11.63627 L66.2017,11.63627 L66.2017,15.61527 C66.2017,16.10827 66.467815,16.60227 66.908216,16.60227 L69.222666,16.60227 C70.46516,16.60227 71.148251,15.77027 71.439665,14.41727 L72.047794,14.49527 L71.559605,17.48427 L71.510875,17.53627 C71.510875,17.53627 70.07348,17.48427 69.342601,17.48427 L65.079141,17.48727 C64.348268,17.48727 62.668183,17.54027 62.668183,17.54027 L62.642883,17.48727 L62.642883,16.91527 C62.642883,16.86427 62.668183,16.78627 62.789058,16.78627 L63.350336,16.73327 C64.106514,16.65527 64.325778,16.13527 64.325778,15.61627 L64.325778,7.03627 C64.325778,6.43627 64.03249,6.33327 63.350336,6.28227 L62.789058,6.22827 C62.642883,6.20427 62.642883,6.15127 62.642883,6.12427 L62.642883,5.52527 L62.668183,5.47327 C62.668183,5.47327 64.567531,5.52527 65.29841,5.52527 Z M34.105804,5.52527 C34.788895,5.52527 36.322804,5.47327 36.322804,5.47327 L36.347164,5.52527 L36.347164,6.09727 C36.347164,6.17527 36.298434,6.20127 36.200989,6.22727 L35.933,6.28027 C35.177758,6.43527 34.909769,6.56627 34.909769,7.08727 L34.909769,11.01327 C35.713736,11.01327 36.176626,10.57227 37.248582,9.34927 C38.223087,8.20427 38.978329,7.24427 38.978329,6.74927 C38.978329,6.54027 38.759065,6.30727 38.271812,6.22827 C38.174362,6.20327 38.125637,6.17627 38.125637,6.09827 L38.125637,5.49927 L38.149997,5.47427 C38.149997,5.47427 40.12337,5.52627 40.829887,5.52627 C41.463315,5.52627 42.535271,5.47427 42.535271,5.47427 L42.608361,5.49927 L42.608361,6.09827 C42.608361,6.17627 42.535271,6.22827 42.41346,6.22827 C41.463317,6.30627 40.805526,6.35827 39.928471,7.42427 L37.833285,9.99727 C37.41912,10.46627 37.272944,10.75127 37.272944,10.96027 C37.272944,11.11627 37.370394,11.24527 37.492208,11.40127 L41.170965,16.13327 C41.463317,16.49627 42.04802,16.65327 42.535273,16.75627 L42.657086,16.78127 C42.730176,16.80727 42.827624,16.85927 42.827624,16.93727 L42.827624,17.48327 L42.754534,17.50927 C42.754534,17.50927 41.6107552,17.4862389 40.9074768,17.4835293 L40.781161,17.48327 C40.172096,17.48327 39.295041,17.50927 39.295041,17.50927 L39.270681,17.48327 L39.270681,17.17127 C39.270681,16.83227 39.246321,16.54827 38.905242,16.13227 L36.20099,12.54327 C35.83555,12.02227 35.445748,11.89427 34.90977,11.89427 L34.90977,15.74527 C34.909776,16.31727 35.22649,16.60327 35.933007,16.73327 L36.200996,16.78627 C36.274086,16.81127 36.347171,16.83727 36.347171,16.94127 L36.347171,17.48727 L36.322811,17.54027 C36.322811,17.54027 34.9537663,17.4929953 34.1859423,17.4877426 L34.057086,17.48727 C33.374932,17.48727 31.377197,17.54027 31.377197,17.54027 L31.328467,17.48727 L31.328467,16.94127 C31.328467,16.83727 31.401557,16.78627 31.499006,16.78627 L31.986259,16.73327 C32.717137,16.65527 33.033852,16.23927 33.033852,15.74527 L33.033852,7.08727 C33.033852,6.51627 32.765863,6.35827 31.986259,6.28227 L31.499006,6.22827 C31.401556,6.22827 31.328467,6.20427 31.328467,6.12427 L31.328467,5.52527 L31.352827,5.47327 C31.352827,5.47327 33.350563,5.52527 34.105804,5.52527 Z M47.166997,5.52527 C47.824788,5.52527 49.70071,5.47327 49.70071,5.47327 L49.72507,5.52527 L49.72507,6.09727 C49.72507,6.17527 49.67634,6.22727 49.578894,6.22727 L49.067279,6.28027 C48.312037,6.35727 48.044048,6.56627 48.044048,7.08727 L48.044048,15.74527 C48.044045,16.31727 48.287672,16.65527 49.067276,16.73327 L49.578891,16.78627 C49.651981,16.78627 49.72507,16.83727 49.72507,16.94127 L49.72507,17.48727 L49.700707,17.54027 C49.700707,17.54027 48.0296741,17.4924375 47.2150461,17.4876542 L47.093906,17.48727 C46.411752,17.48727 44.511467,17.54027 44.511467,17.54027 L44.462747,17.48727 L44.462747,16.94127 C44.462747,16.83727 44.535837,16.78627 44.633285,16.78627 L45.120538,16.73327 C45.924505,16.65527 46.168131,16.23927 46.168131,15.74527 L46.168131,7.08727 C46.168131,6.51627 45.875779,6.35827 45.120538,6.28227 L44.633285,6.22827 C44.535835,6.22827 44.462747,6.20427 44.462747,6.12427 L44.462747,5.52527 L44.487107,5.47327 C44.487107,5.47327 46.411755,5.52527 47.166997,5.52527 Z M26.84293,5.52527 C27.500721,5.52527 29.376644,5.47327 29.376644,5.47327 L29.401011,5.52527 L29.401011,6.09727 C29.401011,6.17527 29.352274,6.22727 29.254828,6.22727 L28.743213,6.28027 C27.987971,6.35727 27.719982,6.56627 27.719982,7.08727 L27.719982,15.74527 C27.719989,16.31727 27.963615,16.65527 28.74322,16.73327 L29.254835,16.78627 C29.327925,16.78627 29.401011,16.83727 29.401011,16.94127 L29.401011,17.48727 L29.376651,17.54027 C29.376651,17.54027 27.7056181,17.4924375 26.8909892,17.4876542 L26.769849,17.48727 C26.087696,17.48727 24.187411,17.54027 24.187411,17.54027 L24.138681,17.48727 L24.138681,16.94127 C24.138681,16.83727 24.211771,16.78627 24.30922,16.78627 L24.796472,16.73327 C25.600439,16.65527 25.844065,16.23927 25.844065,15.74527 L25.844065,7.08727 C25.844065,6.51627 25.550777,6.35827 24.796472,6.28227 L24.30922,6.22827 C24.21177,6.22827 24.138681,6.20427 24.138681,6.12427 L24.138681,5.52527 L24.163041,5.47327 C24.163041,5.47327 26.087689,5.52527 26.84293,5.52527 Z M56.792099,5.47427 C60.249719,5.47427 60.883147,7.29327 60.883147,8.64727 C60.883147,10.20827 60.176631,12.65127 56.719011,12.65127 C56.109945,12.65127 55.622693,12.59827 55.183228,12.39127 L55.183228,15.87327 C55.183228,16.44527 55.47558,16.57627 56.256121,16.70527 L56.744311,16.78327 C56.841761,16.80927 56.914849,16.83627 56.914849,16.93927 L56.914849,17.48527 L56.891419,17.53727 C56.891419,17.53727 55.1236086,17.4901045 54.3028401,17.4856125 L54.187167,17.48527 C53.505013,17.48527 51.677816,17.53727 51.677816,17.53727 L51.653456,17.48527 L51.653456,16.93927 C51.653456,16.83527 51.702176,16.80927 51.799632,16.78327 L52.311247,16.70527 C53.066489,16.60127 53.310115,16.36727 53.310115,15.87327 L53.308215,7.13827 C53.308248,6.33227 52.991534,6.30627 51.84649,6.22827 C51.700314,6.22827 51.675952,6.15127 51.675952,6.09827 L51.675952,5.50027 L51.724672,5.47427 C52.090111,5.47427 53.527506,5.52627 54.234023,5.52627 C54.916176,5.52627 55.890682,5.47427 56.792099,5.47427 Z M76.702937,5.52627 C77.163953,5.52627 79.285376,5.47427 79.918804,5.47427 C83.987363,5.47427 85.986036,8.17827 85.986036,11.63627 C85.986036,16.18727 82.964133,17.53727 80.260818,17.53727 C78.4200854,17.53727 77.558078,17.4908873 76.8317497,17.4857336 L76.704811,17.48527 C75.972995,17.48527 74.121435,17.53727 74.121435,17.53727 L74.097075,17.48527 L74.097075,16.93927 C74.095194,16.86427 74.144865,16.78627 74.241377,16.78627 L74.80171,16.73327 C75.533526,16.65527 75.777153,16.42127 75.777153,15.61627 L75.777153,7.03627 C75.777153,6.35827 75.60474,6.35827 74.80171,6.28227 L74.267607,6.22827 C74.170157,6.22827 74.095194,6.17627 74.095194,6.09827 L74.095194,5.52627 L74.118624,5.47427 C74.118624,5.47427 76.263472,5.52627 76.702937,5.52627 Z M111.14179,1.95399252e-14 C115.43158,1.95399252e-14 119.035,3.42704 119.035,8.60683 C119.035,13.83894 115.97087,17.47526 111.28886,17.47526 C107.07262,17.47526 103.61627,14.25751 103.61627,9.10388 C103.61627,3.97641 106.75395,1.95399252e-14 111.14179,1.95399252e-14 Z M79.212284,6.22827 C78.262141,6.22827 77.653075,6.38427 77.653075,7.03627 L77.653075,15.61627 C77.653075,16.34227 77.822677,16.78627 79.675174,16.78627 C82.354126,16.78627 83.866483,15.72127 83.866483,12.07927 C83.866483,9.37627 83.305206,6.22827 79.212284,6.22827 Z M110.82312,0.88946 C108.59243,0.88946 105.96953,3.16544 105.96953,8.65915 C105.96953,13.68198 108.83756,16.5858 111.77912,16.5858 C114.57362,16.5858 116.68175,13.78662 116.68175,9.10388 C116.68175,3.66249 114.1569,0.88946 110.82312,0.88946 Z M56.645928,6.22927 C55.475585,6.22927 55.183233,6.46327 55.183233,7.13927 L55.18417,11.66327 C55.671423,11.87227 56.280489,11.89727 56.767741,11.89727 C58.230436,11.89727 58.934142,10.95927 58.934142,8.95927 C58.934142,6.72327 57.983999,6.22927 56.645928,6.22927 Z"/>
	</g>
</svg>

<svg xmlns="http://www.w3.org/2000/svg" width="138" height="21" viewBox="0 0 120 21"><path fill="#72777D" d="M102.505 5.471c.105.112.105.503 0 .614-1.046.056-1.342.15-1.342 1.694v7.815c0 2.661-1.029 3.629-1.779 4.317-.715.651-1.255.8-2.04.8-.383 0-1.307-.335-1.307-1.005 0-.409.523-.8.767-.8.54 0 .61.391.784.633a.77.77 0 00.61.335c.576 0 1.483-.521 1.483-3.87V7.778c0-1.545-.297-1.638-1.692-1.694-.104-.111-.104-.502 0-.614.872.019 1.482.037 2.424.037.82 0 1.238-.018 2.092-.037zM14.257.262c1.24-.009 3.917-.001 4.293 0h.044l.054.053v.496c0 .137-.072.205-.215.205-.699.035-.842.11-1.098.502-.14.215-.415.676-.7 1.193L14.18 7.607l-.068.152 2.997 6.548.182.053L22.014 2.4c.164-.483.14-.825-.072-1.026-.211-.196-.36-.312-.908-.336l-.443-.024a.25.25 0 01-.155-.06.175.175 0 01-.074-.145V.311l.067-.05h5.335l.055.05V.81c0 .135-.072.203-.215.203-.699.033-1.217.195-1.552.484-.337.291-.6.692-.788 1.213 0 0-4.343 10.61-5.829 14.135-.569 1.156-1.128 1.05-1.62-.033-.616-1.354-1.895-4.34-2.834-6.547-1.005 2.212-2.381 5.21-3.064 6.561-.663 1.231-1.21 1.07-1.644.032-1.51-3.8-4.61-10.475-6.068-14.215-.27-.689-.473-1.13-.665-1.306-.193-.173-.595-.277-1.205-.312C.112.998 0 .94 0 .846v-.52L.054.273c.873-.003 4.691 0 5.604.001h.197l.054.051v.496c0 .137-.082.203-.242.203l-.605.027c-.52.023-.779.19-.779.496 0 .143.054.375.175.688C5.62 5.256 9.634 14.287 9.634 14.287l.147.041 2.587-5.506c-.317-.746-.518-1.224-.518-1.224l-1.779-3.73s-.344-.746-.46-.994c-.782-1.653-.765-1.74-1.555-1.852-.222-.03-.336-.06-.336-.178V.321l.067-.05C9.214.267 12.389.267 12.389.267l.122.043v.521c0 .12-.08.18-.242.18l-.333.051c-.844.07-.706.438-.145 1.63l1.706 3.725L15.384 2.4c.293-.682.258-.89.148-1.052l-.027-.037c-.075-.096-.326-.249-.872-.273l-.215-.025a.246.246 0 01-.155-.059.174.174 0 01-.073-.146V.313zm75.951 5.21c.105.11.105.502 0 .613-.976.056-1.238-.074-.802.707l2.197 4.131c.157.298.227.354.384.038l2.074-4.169c.384-.781-.052-.65-.82-.707-.104-.111-.104-.483.001-.595.523.014.928.017 1.268.018h.573c.356 0 .774-.003 1.193-.018.104.112.104.484 0 .595-.785.093-1.029-.018-1.517.912l-2.232 4.299c-.349.688-.296.502-.296 1.246v2.699c0 1.544.296 1.637 1.691 1.693.105.111.105.502 0 .614-.872-.019-1.482-.037-2.424-.037-.959 0-1.586.018-2.44.037-.105-.112-.105-.502 0-.614 1.394-.056 1.69-.149 1.69-1.693v-2.55c0-.688-.07-.688-.366-1.247l-2.301-4.112c-.698-1.265-.89-1.19-1.622-1.247-.104-.111-.122-.502-.017-.614.523.019 1.098.037 1.778.037.698 0 1.29-.018 1.988-.037zm-24.91.053h3.582c.73 0 2.461-.052 2.461-.052l.05.052c.023 1.118.194 2.134.365 3.121l-.608.104c-.267-.963-.73-2.34-2.289-2.34H66.91c-.463 0-.706.182-.706.623v3.771h1.826c.683 0 .853-.312.95-.832l.146-.546c0-.078.05-.13.146-.13h.414c.05 0 .05.026.05.077-.05.572-.147 1.301-.147 1.925 0 .65.097 1.196.146 1.794l-.05.053h-.413c-.12 0-.171-.053-.171-.13l-.122-.572c-.097-.52-.317-.807-.952-.807h-1.825v3.98c0 .492.266.986.706.986h2.315c1.242 0 1.925-.832 2.217-2.185l.608.078-.488 2.99-.05.051s-1.437-.052-2.167-.052l-4.264.003c-.73 0-2.41.053-2.41.053l-.026-.053v-.572c0-.05.025-.129.146-.129l.561-.053c.757-.078.976-.598.976-1.117v-8.58c0-.6-.294-.703-.976-.754l-.56-.054c-.147-.024-.147-.077-.147-.104v-.599l.025-.052s1.9.052 2.63.052zm-31.192 0a96.9 96.9 0 002.217-.052l.024.052v.572c0 .078-.049.104-.146.13l-.268.053c-.755.155-1.023.286-1.023.807v3.926c.804 0 1.267-.44 2.339-1.664.974-1.145 1.73-2.105 1.73-2.6 0-.209-.22-.442-.707-.52-.098-.026-.146-.053-.146-.13v-.6l.024-.025s1.973.052 2.68.052c.633 0 1.705-.052 1.705-.052l.073.025v.6c0 .077-.073.13-.195.13-.95.077-1.607.13-2.485 1.195l-2.095 2.573c-.414.47-.56.754-.56.963 0 .156.097.285.22.441l3.678 4.732c.292.363.877.52 1.364.623l.122.025c.073.026.17.078.17.156v.546l-.072.026s-1.144-.023-1.848-.025h-.126c-.609 0-1.486.025-1.486.025l-.024-.026v-.312c0-.339-.025-.623-.366-1.039l-2.704-3.589c-.365-.52-.755-.649-1.291-.649v3.851c0 .572.316.858 1.023.988l.268.053c.073.025.146.051.146.155v.546l-.024.053s-1.37-.047-2.137-.052h-.129c-.682 0-2.68.052-2.68.052l-.049-.053v-.546c0-.104.074-.155.171-.155l.487-.053c.731-.078 1.048-.494 1.048-.988V7.087c0-.57-.268-.729-1.048-.805l-.487-.054c-.097 0-.17-.024-.17-.104v-.599l.024-.052s1.998.052 2.753.052zm13.061 0c.658 0 2.534-.052 2.534-.052l.024.052v.572c0 .078-.049.13-.146.13l-.512.053c-.755.077-1.023.286-1.023.807v8.658c0 .572.244.91 1.023.988l.512.053c.073 0 .146.051.146.155v.546l-.024.053s-1.671-.048-2.486-.052h-.121c-.682 0-2.583.052-2.583.052l-.048-.053v-.546c0-.104.073-.155.17-.155l.488-.053c.804-.078 1.047-.494 1.047-.988V7.087c0-.57-.292-.729-1.047-.805l-.488-.054c-.097 0-.17-.024-.17-.104v-.599l.024-.052s1.925.052 2.68.052zm-20.324 0c.658 0 2.534-.052 2.534-.052l.024.052v.572c0 .078-.049.13-.146.13l-.512.053c-.755.077-1.023.286-1.023.807v8.658c0 .572.244.91 1.023.988l.512.053c.073 0 .146.051.146.155v.546l-.024.053s-1.671-.048-2.486-.052h-.121c-.682 0-2.583.052-2.583.052l-.048-.053v-.546c0-.104.073-.155.17-.155l.487-.053c.804-.078 1.048-.494 1.048-.988V7.087c0-.57-.293-.729-1.048-.805l-.487-.054c-.097 0-.17-.024-.17-.104v-.599l.024-.052s1.925.052 2.68.052zm29.95-.05c3.457 0 4.09 1.818 4.09 3.172 0 1.561-.706 4.004-4.164 4.004-.61 0-1.096-.053-1.536-.26v3.482c0 .572.293.703 1.073.832l.488.078c.098.026.17.053.17.156v.546l-.023.052s-1.767-.047-2.588-.051h-.116c-.682 0-2.51.051-2.51.051l-.024-.052v-.546c0-.104.05-.13.147-.156l.511-.078c.755-.104 1-.338 1-.832l-.003-8.735c0-.806-.316-.832-1.462-.91-.146 0-.17-.077-.17-.13V5.5l.049-.026c.365 0 1.803.052 2.509.052.682 0 1.657-.052 2.558-.052zm19.91.051c.461 0 2.582-.052 3.216-.052 4.068 0 6.067 2.704 6.067 6.162 0 4.551-3.022 5.901-5.725 5.901-1.84 0-2.703-.046-3.43-.051h-.126c-.732 0-2.584.051-2.584.051l-.024-.052v-.546c-.002-.075.048-.153.144-.153l.56-.053c.733-.078.976-.312.976-1.117v-8.58c0-.678-.172-.678-.975-.754l-.534-.054c-.098 0-.173-.052-.173-.13v-.572l.024-.052s2.144.052 2.584.052zM111.142 0c4.29 0 7.893 3.427 7.893 8.607 0 5.232-3.064 8.868-7.746 8.868-4.216 0-7.673-3.217-7.673-8.371 0-5.128 3.138-9.104 7.526-9.104zm-31.93 6.228c-.95 0-1.559.156-1.559.808v8.58c0 .726.17 1.17 2.022 1.17 2.68 0 4.191-1.065 4.191-4.707 0-2.703-.56-5.85-4.654-5.85zM110.823.89c-2.23 0-4.853 2.276-4.853 7.77 0 5.023 2.868 7.927 5.81 7.927 2.794 0 4.902-2.8 4.902-7.482 0-5.442-2.525-8.215-5.859-8.215zM56.646 6.23c-1.17 0-1.463.234-1.463.91l.001 4.524c.487.21 1.096.234 1.584.234 1.462 0 2.166-.938 2.166-2.938 0-2.236-.95-2.73-2.288-2.73z"/></svg>
